images/github-icon.svg

<svg width="24" height="24" viewBox="0 0 24 24" fill="none" xmlns="http://www.w3.org/2000/svg">
<g clip-path="url(#clip0_12_46)">
<path d="M7.02399 2.30994C7.77495 2.56433 8.48936 2.91599 9.14899 3.35594C10.0806 3.11785 11.0385 2.99824 12 2.99994C12.993 2.99994 13.951 3.12394 14.849 3.35494C15.5084 2.91542 16.2224 2.5641 16.973 2.30994C17.67 2.07294 18.663 1.68894 19.253 2.34194C19.653 2.78594 19.753 3.52994 19.824 4.09794C19.904 4.73194 19.923 5.55794 19.713 6.37794C20.516 7.41494 21 8.65194 21 9.99994C21 12.0419 19.894 13.8149 18.257 15.0429C17.4692 15.6265 16.5954 16.0839 15.667 16.3989C15.881 16.8889 16 17.4309 16 17.9999V20.9999C16 21.2652 15.8946 21.5195 15.7071 21.707C15.5196 21.8946 15.2652 21.9999 15 21.9999H8.99999C8.73477 21.9999 8.48042 21.8946 8.29288 21.707C8.10534 21.5195 7.99999 21.2652 7.99999 20.9999V20.0089C7.04499 20.1259 6.24399 20.0219 5.56299 19.7329C4.85099 19.4309 4.35499 18.9629 3.98199 18.5149C3.62799 18.0909 3.24199 17.1349 2.68399 16.9489C2.55936 16.9074 2.44413 16.8418 2.34487 16.7558C2.24562 16.6697 2.16427 16.565 2.1055 16.4475C1.98678 16.2103 1.96718 15.9356 2.05099 15.6839C2.13479 15.4322 2.31515 15.2242 2.55239 15.1054C2.78962 14.9867 3.06429 14.9671 3.31599 15.0509C3.98199 15.2729 4.41599 15.7529 4.71299 16.1389C5.19299 16.7589 5.58299 17.5689 6.34299 17.8919C6.65599 18.0249 7.11499 18.1119 7.83299 18.0139L7.99999 17.9799C8.00189 17.4357 8.11522 16.8977 8.33299 16.3989C7.40457 16.084 6.5308 15.6265 5.74299 15.0429C4.10599 13.8149 2.99999 12.0429 2.99999 9.99994C2.99999 8.65394 3.48299 7.41794 4.28399 6.38194C4.07399 5.56194 4.09199 4.73394 4.17199 4.09894L4.17699 4.06094C4.24999 3.47894 4.33499 2.79394 4.74299 2.34194C5.33299 1.68894 6.32699 2.07394 7.02298 2.31094L7.02399 2.30994Z" fill="#D9D9D9"/>
</g>
<defs>
<clipPath id="clip0_12_46">
<rect width="24" height="24" fill="white"/>
</clipPath>
</defs>
</svg>

<svg width="24" height="24" fill="none" xmlns="http://www.w3.org/2000/svg"><g clip-path="url(#a)"><path d="M7.02 2.31c.75.25 1.47.6 2.13 1.05a11.43 11.43 0 0 1 5.7 0c.66-.44 1.37-.8 2.12-1.05.7-.24 1.7-.62 2.28.03.4.45.5 1.19.57 1.76.08.63.1 1.46-.1 2.28A5.88 5.88 0 0 1 21 10c0 2.04-1.1 3.81-2.74 5.04a9.45 9.45 0 0 1-2.6 1.36A4 4 0 0 1 16 18v3a1 1 0 0 1-1 1H9a1 1 0 0 1-1-1v-1c-.96.13-1.76.02-2.44-.27-.7-.3-1.2-.77-1.58-1.22-.35-.42-.74-1.38-1.3-1.56a1 1 0 1 1 .64-1.9c.66.22 1.1.7 1.4 1.09.47.62.86 1.43 1.62 1.75.32.13.77.22 1.5.12l.16-.03c0-.54.12-1.08.33-1.58a9.45 9.45 0 0 1-2.59-1.36A6.35 6.35 0 0 1 3 10c0-1.35.48-2.58 1.28-3.62a6.23 6.23 0 0 1-.1-2.28v-.04c.07-.58.15-1.27.56-1.72.6-.65 1.59-.27 2.28-.03Z" fill="#D9D9D9"/></g><defs><clipPath id="a"><path fill="#fff" d="M0 0h24v24H0z"/></clipPath></defs></svg>
